X:10
T:Anderson's
R:reel
D:Tony Linnane & Noel Hill
S:Clare FM
Z:psc -  http://www.cranfordpub.com
L:1/8
Q:333
M:C|
K:D
ABdf efdB|AF ~F2 EDDF|ABdf efdf|afef dcdB|
ABdf efdB|AF ~F2 EDDF|A2 df eddf|afef d2 d||
||f|a2 fa bafa|{b}afdf edBA|a2 fa bafa|{b}afef dcdf|
a2 fa bafa|{b}afdf edBd|A2 FA ABdf|afef dA (3(dcB)|]
